src/assets/images/img_draw_item_1.svg

<svg xmlns="http://www.w3.org/2000/svg" width="1061" height="682" fill="none"><path stroke="#2B2A29" stroke-miterlimit="22.926" stroke-width="7" d="M52.073 246.055c3.432-7.506 4.72-17.372 5.791-26.594 1.073-9.223 1.93-17.8 2.573-24.663.644-6.863 1.074-12.011 2.79-15.871 1.715-3.86 4.718-6.434 11.365-7.506 6.649-1.072 16.943-.644 30.24.429 13.298 1.071 29.596 2.788 49.756 4.289 20.161 1.501 44.18 2.788 69.273 2.788 25.093 0 51.257-1.287 74.633-3.218 23.377-1.93 43.966-4.502 61.123-10.079 17.157-5.577 30.883-14.155 47.611-25.735 16.729-11.582 36.46-26.165 55.761-40.963 19.303-14.798 38.175-29.812 56.19-41.82 18.015-12.012 35.172-21.02 49.112-28.096 13.941-7.078 24.665-12.224 37.961-16.16 13.296-3.935 29.167-6.66 46.11-8.022 16.943-1.363 34.958-1.363 55.546 2.36 20.589 3.72 43.75 11.163 63.696 18.315 19.946 7.152 36.673 14.016 58.549 28.17 21.876 14.155 48.898 35.601 69.702 54.903 20.802 19.303 35.386 36.459 48.253 54.689 12.869 18.229 24.021 37.532 36.031 59.622 12.01 22.089 24.881 46.968 33.461 63.052 8.57 16.085 12.86 23.377 18.01 28.953 5.15 5.576 11.15 9.436 15.44 14.154 4.29 4.718 6.86 10.295 5.58 16.299-1.29 6.005-6.44 12.439-11.58 17.587-5.15 5.147-10.3 9.007-15.66 18.015-5.36 9.007-10.94 23.162-19.3 40.319-8.37 17.158-19.516 37.318-33.886 59.622-14.369 22.304-31.955 46.753-47.611 66.484-15.656 19.73-29.382 34.743-51.258 52.759-21.874 18.015-51.9 39.031-82.997 53.186-31.098 14.155-63.268 21.447-92.434 23.806-29.168 2.359-55.332-.214-78.71-6.004-23.376-5.791-43.965-14.798-62.838-24.878-18.873-10.08-36.029-21.234-52.329-31.957-16.3-10.723-31.742-21.017-46.54-33.241-14.797-12.224-28.952-26.379-44.179-36.674-15.226-10.294-31.526-16.728-47.182-22.733-15.655-6.005-30.669-11.582-44.824-14.798-14.154-3.217-27.45-4.075-48.253-4.289-20.803-.215-49.114.214-74.206.429-25.093.214-46.968.214-64.125.857-17.158.644-29.596 1.931-41.178 3.004-11.58 1.071-22.304 1.928-29.167-.859-6.863-2.788-9.865-9.223-11.366-20.588-1.502-11.368-1.502-27.667-1.957-46.245-.455-18.578-1.367-39.434-4.718-52.543-3.35-13.11-9.14-18.471-15.324-21.752-6.184-3.283-12.762-4.484-18.178-5.824-5.415-1.341-9.667-2.82-11.606-18.278-1.94-15.457-1.565-44.893 1.062-60.173 2.627-15.281 7.507-16.407 13.083-16.836 5.576-.429 11.85-.16 17.774-2.599 5.924-2.44 11.5-7.587 14.93-15.093Z" clip-rule="evenodd"/><path stroke="#2B2A29" stroke-miterlimit="22.926" stroke-width="7" d="M846.652 121.941c-.856.696-1.015.674-1.942 1.331-6.687 4.74-14.731 9.363-16.584 17.134-2.504 10.514 9.113 21.676 5.71 31.941-3.032 9.15-20.133 8.952-22.371 18.328-2.715 11.376 12.485 22.223 9.964 33.643-2.282 10.346-19.912 12.277-22.372 22.582-2.401 10.061 12.189 19.287 9.964 29.389-2.023 9.178-18.49 10.036-20.67 19.177-2.616 10.963 17.238 19.197 16.531 30.445-.719 11.446-16.855 24.412-14.227 35.575 2.544 10.805 15.653 10.128 18.689 20.804 3.426 12.052-11.309 24.439-8.435 36.635 2.093 8.888 18.633 8.624 21.164 17.398 3.23 11.199-8.887 23.069-6.215 34.415 2.084 8.847 16.838 10.774 18.944 19.616 2.432 10.212-9.361 20.499-6.955 30.716 2.331 9.898 13.399 15.788 19.96 23.559"/><path stroke="#2B2A29" stroke-miterlimit="22.926" stroke-width="7" d="M821.112 101.244c-4.97 7.379-26.705 24.546-28.789 33.296-2.503 10.512 9.113 31.296 5.71 41.56-3.032 9.15-20.134 8.952-22.372 18.327-2.714 11.377 12.485 22.223 9.964 33.643-2.281 10.347-19.912 12.277-22.372 22.583-2.401 10.061 12.191 19.287 9.964 29.389-2.023 9.177-18.489 10.036-20.67 19.177-2.616 10.963 17.239 19.197 16.532 30.445-.72 11.446-16.856 24.412-14.228 35.575 2.544 10.804 15.653 10.127 18.689 20.804 3.427 12.052-11.307 24.439-8.434 36.635 2.093 8.888 18.633 8.623 21.164 17.397 3.23 11.2-8.888 23.07-6.215 34.416 2.085 8.847 16.839 10.774 18.944 19.615 2.432 10.211-10.674 32.002-6.954 41.816 7.786 20.55 28.042 27.101 34.605 34.872"/><path stroke="#2B2A29" stroke-miterlimit="22.926" stroke-width="7" d="M770.97 72.265c-1.741 3.228-11.819 16.987-10.726 24.41 1.187 8.067 3.14 17.141.86 22.899-4.383 11.074-22.983 12.839-24.712 20.1-2.504 10.516 9.112 21.677 5.709 31.942-3.032 9.149-20.133 8.951-22.371 18.327-2.716 11.376 12.484 22.223 9.964 33.643-2.282 10.346-19.913 12.277-22.373 22.582-2.401 10.061 12.191 19.287 9.965 29.389-2.024 9.179-18.489 10.037-20.67 19.178-2.616 10.962 17.238 19.196 16.532 30.444-.72 11.446-16.856 24.412-14.228 35.575 2.544 10.805 15.653 10.128 18.688 20.805 3.427 12.052-11.307 24.438-8.435 36.634 2.094 8.889 18.634 8.624 21.164 17.398 3.232 11.199-8.887 23.07-6.213 34.416 2.083 8.847 16.838 10.774 18.943 19.615 2.431 10.211-11.949 26.051-9.544 36.266.917 3.897 15.998 9.303 24.471 24.307 4.661 8.256-12.385 33.379-7.561 41.485 8.678 14.584 34.302 16.319 35.692 17.028"/><path stroke="#2B2A29" stroke-miterlimit="22.926" stroke-width="7" d="M745.441 56.18c-3.083.358-26.709 8.654-24.861 18.554 2.444 13.105 4.777 27.323 3.481 30.6-4.378 11.069-22.39 15.75-24.116 23.008-2.501 10.513 8.62 24.939 5.22 35.203-3.032 9.148-26.425 18.571-28.662 27.946-2.715 11.375 12.485 22.223 9.964 33.643-2.282 10.346-19.912 12.277-22.372 22.582-2.401 10.062 12.19 19.288 9.964 29.388-2.023 9.179-18.49 10.038-20.67 19.179-2.616 10.963 17.238 19.196 16.531 30.445-.719 11.446-16.855 24.411-14.227 35.574 2.544 10.805 15.653 10.128 18.689 20.805 3.426 12.051-11.308 24.439-8.435 36.635 2.093 8.888 18.633 8.623 21.164 17.396 3.23 11.201-8.887 23.071-6.215 34.417 2.084 8.847 16.84 10.775 18.944 19.615 2.431 10.21-11.947 26.05-9.544 36.266.916 3.895 20.442 28.441 25.211 36.887 4.767 8.445-13.809 35.054-8.929 41.685 4.879 6.631 27.343 25.804 36.701 26.137M845.521 121.631c22.425 25.254 44.85 50.509 63.709 78.922 18.858 28.413 34.151 59.984 44.262 82.677 10.114 22.691 15.047 36.503 16.157 53.028 1.11 16.527-1.604 35.766-8.881 56.73-7.276 20.965-19.114 43.658-32.68 64.87-13.566 21.211-28.858 40.944-42.687 55.231-13.828 14.287-26.193 23.131-38.557 31.973M769.709 72.435c8.231 3.669 16.463 7.338 25.058 12.354 8.596 5.015 17.555 11.38 26.514 17.742M785.083 608.811c7.794-5.92 15.587-11.841 22.661-18.279 7.072-6.439 13.427-13.395 19.781-20.35"/><path stroke="#2B2A29" stroke-miterlimit="22.926" stroke-width="7" d="M558.242 345.071c-.018-9.065-.036-18.129 1.516-23.938 1.552-5.811 4.675-8.364 8.79-10.352 4.116-1.987 9.224-3.405 15.468-6.385 6.244-2.981 13.624-7.521 19.868-14.758 6.245-7.239 11.353-17.172 15.185-27.107 3.831-9.934 6.386-19.867 7.52-30.368 1.137-10.503.854-21.572-.708-31.363-1.56-9.792-4.399-18.308-8.799-26.822-4.399-8.515-10.359-17.03-17.881-23.274-7.521-6.243-16.602-10.218-25.118-12.629-8.514-2.413-16.462-3.264-25.119-2.838-8.656.426-18.022 2.127-26.395 6.386-8.372 4.257-15.753 11.069-19.159 16.604-3.406 5.533-2.838 9.791.142 11.494 2.981 1.703 8.373.852 13.908-1.135 5.535-1.988 11.211-5.11 17.313-6.67 6.102-1.562 12.631-1.562 19.158.851 6.529 2.412 13.056 7.237 18.166 12.488 5.108 5.252 8.798 10.927 11.494 18.592 2.697 7.662 4.399 17.312 4.542 26.536.142 9.225-1.277 18.024-4.826 25.545-3.547 7.521-9.224 13.765-16.603 18.733-7.379 4.966-16.462 8.655-25.829 10.359-9.366 1.703-19.016 1.419-27.247-.851-8.23-2.271-15.043-6.528-20.578-11.921-5.534-5.394-9.791-11.921-13.481-20.01-3.689-8.09-6.811-17.739-8.089-26.254-1.276-8.515-.709-15.894.284-24.693.994-8.799 2.412-19.016 7.096-30.51 4.683-11.496 12.63-24.268 21.712-35.905 9.083-11.636 19.3-22.138 29.519-30.652 10.218-8.515 20.435-15.044 33.207-22.139 12.772-7.095 28.1-14.76 42.29-19.017 14.191-4.257 27.246-5.107 40.444-5.675 13.199-.568 26.539-.852 43.186.664 16.649 1.517 36.605 4.835 56.561 8.151M558.242 345.071c.085 7.491.17 14.983 1.772 20.007 1.604 5.022 4.727 7.577 8.842 9.564 4.116 1.987 9.224 3.406 15.468 6.386 6.245 2.981 13.624 7.521 19.868 14.758 6.245 7.239 11.352 17.172 15.185 27.106 3.831 9.934 6.386 19.868 7.521 30.368 1.135 10.502.852 21.572-.709 31.364-1.561 9.792-4.4 18.306-8.799 26.821-4.399 8.515-10.359 17.031-17.881 23.273-7.521 6.245-16.603 10.218-25.117 12.631-8.516 2.413-16.463 3.263-25.12 2.838-8.657-.426-18.023-2.129-26.395-6.386-8.373-4.257-15.753-11.069-19.159-16.604-3.405-5.535-2.838-9.792.142-11.496 2.981-1.701 8.372-.85 13.908 1.137 5.535 1.986 11.211 5.11 17.313 6.67 6.101 1.561 12.631 1.561 19.157-.851 6.53-2.413 13.057-7.238 18.166-12.489s8.799-10.927 11.495-18.591c2.697-7.663 4.399-17.312 4.541-26.537.142-9.224-1.276-18.023-4.825-25.544-3.547-7.522-9.223-13.766-16.604-18.733-7.379-4.966-16.462-8.656-25.829-10.359-9.365-1.703-19.015-1.42-27.246.85-8.231 2.272-15.043 6.529-20.578 11.922-5.534 5.392-9.791 11.92-13.481 20.009-3.69 8.091-6.812 17.74-8.089 26.254-1.276 8.515-.709 15.894.284 24.693.993 8.798 2.412 19.016 7.095 30.51 4.684 11.496 12.63 24.269 21.713 35.905 9.083 11.637 19.3 22.138 29.518 30.652 10.218 8.516 20.435 15.043 33.207 22.139 12.772 7.095 28.1 14.759 42.291 19.017 14.191 4.257 27.246 5.108 40.444 5.675 13.198.569 26.538.853 42.719-.176 16.179-1.028 35.2-3.369 54.22-5.709M96.464 338.83c0 36.613 0 73.228.851 94.231.853 21.003 2.554 26.394 6.102 29.802 3.549 3.406 8.941 4.824 16.036 4.682 7.096-.142 15.895-1.844 29.518-3.548 13.624-1.702 32.073-3.405 50.663-3.973 18.591-.568 37.323 0 54.92.568 17.598.567 34.06 1.135 49.385 3.122 15.328 1.986 29.519 5.393 43.142 9.508 13.624 4.115 26.679 8.941 36.754 12.205 10.076 3.263 17.172 4.966 22.139 4.682 4.968-.283 7.807-2.555 10.36-6.953 2.554-4.399 4.826-10.927 6.811-19.159 1.988-8.231 3.69-18.164 6.67-28.098 2.981-9.934 7.239-19.868 12.489-29.092 5.251-9.225 11.495-17.739 16.604-22.565 5.109-4.824 9.082-5.96 12.062-8.655 2.98-2.697 4.968-6.955 5.818-13.056.852-6.103.568-14.05.284-21.997"/><path stroke="#2B2A29" stroke-miterlimit="22.926" stroke-width="7" d="M96.464 340.428c-.284-35.527-.568-71.053.142-91.514.71-20.459 2.412-25.851 5.96-29.258 3.548-3.406 8.94-4.825 16.036-4.682 7.096.142 15.895 1.844 29.517 3.548 13.625 1.703 32.073 3.406 50.663 3.973 18.592.568 37.324 0 54.921-.567 17.598-.569 34.059-1.137 49.385-3.123 15.327-1.987 29.518-5.393 43.142-9.508 13.624-4.116 26.679-8.941 36.754-12.204 10.076-3.264 17.172-4.968 22.139-4.683 4.966.284 7.805 2.554 10.359 6.953 2.555 4.399 4.826 10.928 6.812 19.159 1.987 8.23 3.689 18.163 6.669 28.098 2.981 9.934 7.239 19.867 12.49 29.092 5.251 9.224 11.495 17.739 16.603 22.564 5.11 4.826 9.083 5.96 12.063 8.656 2.98 2.697 4.967 6.954 5.968 13.046 1.001 6.091 1.019 14.018 1.035 21.944"/></svg>

<svg width="1061" height="682" viewBox="0 0 1061 682" fill="none" xmlns="http://www.w3.org/2000/svg">
<path fill-rule="evenodd" clip-rule="evenodd" d="M52.0734 246.055C55.5053 238.549 56.7935 228.683 57.8643 219.461C58.9372 210.238 59.7949 201.661 60.4374 194.798C61.0809 187.935 61.5114 182.787 63.2268 178.927C64.9422 175.067 67.9447 172.493 74.5922 171.421C81.2408 170.349 91.5354 170.777 104.832 171.85C118.13 172.921 134.428 174.638 154.588 176.139C174.749 177.64 198.768 178.927 223.861 178.927C248.954 178.927 275.118 177.64 298.494 175.709C321.871 173.779 342.46 171.207 359.617 165.63C376.774 160.053 390.5 151.475 407.228 139.895C423.957 128.313 443.688 113.73 462.989 98.9324C482.292 84.1341 501.164 69.1204 519.179 57.1115C537.194 45.1004 554.351 36.0929 568.291 29.0161C582.232 21.9381 592.956 16.7919 606.252 12.8563C619.548 8.9208 635.419 6.19596 652.362 4.83354C669.305 3.47111 687.32 3.47108 707.908 7.19354C728.497 10.9138 751.658 18.3566 771.604 25.5088C791.55 32.661 808.277 39.5248 830.153 53.6796C852.029 67.8344 879.051 89.2803 899.855 108.582C920.657 127.885 935.241 145.041 948.108 163.271C960.977 181.5 972.129 200.803 984.139 222.893C996.149 244.982 1009.02 269.861 1017.6 285.945C1026.17 302.03 1030.46 309.322 1035.61 314.898C1040.76 320.474 1046.76 324.334 1051.05 329.052C1055.34 333.77 1057.91 339.347 1056.63 345.351C1055.34 351.356 1050.19 357.79 1045.05 362.938C1039.9 368.085 1034.75 371.945 1029.39 380.953C1024.03 389.96 1018.45 404.115 1010.09 421.272C1001.72 438.43 990.574 458.59 976.204 480.894C961.835 503.198 944.249 527.647 928.593 547.378C912.937 567.108 899.211 582.121 877.335 600.137C855.461 618.152 825.435 639.168 794.338 653.323C763.24 667.478 731.07 674.77 701.904 677.129C672.736 679.488 646.572 676.915 623.194 671.125C599.818 665.334 579.229 656.327 560.356 646.247C541.483 636.167 524.327 625.013 508.027 614.29C491.727 603.567 476.285 593.273 461.487 581.049C446.69 568.825 432.535 554.67 417.308 544.375C402.082 534.081 385.782 527.647 370.126 521.642C354.471 515.637 339.457 510.06 325.302 506.844C311.148 503.627 297.852 502.769 277.049 502.555C256.246 502.34 227.935 502.769 202.843 502.984C177.75 503.198 155.875 503.198 138.718 503.841C121.56 504.485 109.122 505.772 97.5404 506.845C85.9598 507.916 75.2358 508.773 68.373 505.986C61.5103 503.198 58.5078 496.763 57.0066 485.398C55.5053 474.03 55.5053 457.731 55.0501 439.153C54.5949 420.575 53.6834 399.719 50.3322 386.61C46.9821 373.5 41.1923 368.139 35.0076 364.858C28.8239 361.575 22.2464 360.374 16.83 359.034C11.4148 357.693 7.16283 356.214 5.22357 340.756C3.28432 325.299 3.65883 295.863 6.28575 280.583C8.91268 265.302 13.7931 264.176 19.3687 263.747C24.9454 263.318 31.2184 263.587 37.1427 261.148C43.067 258.708 48.6426 253.561 52.0734 246.055V246.055Z" stroke="#2B2A29" stroke-width="7" stroke-miterlimit="22.9256"/>
<path d="M846.652 121.941C845.796 122.637 845.637 122.615 844.71 123.272C838.023 128.012 829.979 132.635 828.126 140.406C825.622 150.92 837.239 162.082 833.836 172.347C830.804 181.497 813.703 181.299 811.465 190.675C808.75 202.051 823.95 212.898 821.429 224.318C819.147 234.664 801.517 236.595 799.057 246.9C796.656 256.961 811.246 266.187 809.021 276.289C806.998 285.467 790.531 286.325 788.351 295.466C785.735 306.429 805.589 314.663 804.882 325.911C804.163 337.357 788.027 350.323 790.655 361.486C793.199 372.291 806.308 371.614 809.344 382.29C812.77 394.342 798.035 406.729 800.909 418.925C803.002 427.813 819.542 427.549 822.073 436.323C825.303 447.522 813.186 459.392 815.858 470.738C817.942 479.585 832.696 481.512 834.802 490.354C837.234 500.566 825.441 510.853 827.847 521.07C830.178 530.968 841.246 536.858 847.807 544.629" stroke="#2B2A29" stroke-width="7" stroke-miterlimit="22.9256"/>
<path d="M821.112 101.244C816.142 108.623 794.407 125.79 792.323 134.54C789.82 145.052 801.436 165.836 798.033 176.1C795.001 185.25 777.899 185.052 775.661 194.427C772.947 205.804 788.146 216.65 785.625 228.07C783.344 238.417 765.713 240.347 763.253 250.653C760.852 260.714 775.444 269.94 773.217 280.042C771.194 289.219 754.728 290.078 752.547 299.219C749.931 310.182 769.786 318.416 769.079 329.664C768.359 341.11 752.223 354.076 754.851 365.239C757.395 376.043 770.504 375.366 773.54 386.043C776.967 398.095 762.233 410.482 765.106 422.678C767.199 431.566 783.739 431.301 786.27 440.075C789.5 451.275 777.382 463.145 780.055 474.491C782.14 483.338 796.894 485.265 798.999 494.106C801.431 504.317 788.325 526.108 792.045 535.922C799.831 556.472 820.087 563.023 826.65 570.794" stroke="#2B2A29" stroke-width="7" stroke-miterlimit="22.9256"/>
<path d="M770.97 72.2651C769.229 75.4926 759.151 89.2524 760.244 96.6747C761.431 104.742 763.384 113.816 761.104 119.574C756.721 130.648 738.121 132.413 736.392 139.674C733.888 150.19 745.504 161.351 742.101 171.616C739.069 180.765 721.968 180.567 719.73 189.943C717.014 201.319 732.214 212.166 729.694 223.586C727.412 233.932 709.781 235.863 707.321 246.168C704.92 256.229 719.512 265.455 717.286 275.557C715.262 284.736 698.797 285.594 696.616 294.735C694 305.697 713.854 313.931 713.148 325.179C712.428 336.625 696.292 349.591 698.92 360.754C701.464 371.559 714.573 370.882 717.608 381.559C721.035 393.611 706.301 405.997 709.173 418.193C711.267 427.082 727.807 426.817 730.337 435.591C733.569 446.79 721.45 458.661 724.124 470.007C726.207 478.854 740.962 480.781 743.067 489.622C745.498 499.833 731.118 515.673 733.523 525.888C734.44 529.785 749.521 535.191 757.994 550.195C762.655 558.451 745.609 583.574 750.433 591.68C759.111 606.264 784.735 607.999 786.125 608.708" stroke="#2B2A29" stroke-width="7" stroke-miterlimit="22.9256"/>
<path d="M745.441 56.1792C742.358 56.5376 718.732 64.8337 720.58 74.7345C723.024 87.8389 725.357 102.057 724.061 105.334C719.683 116.403 701.671 121.084 699.945 128.342C697.444 138.855 708.565 153.281 705.165 163.545C702.133 172.693 678.74 182.116 676.503 191.491C673.788 202.866 688.988 213.714 686.467 225.134C684.185 235.48 666.555 237.411 664.095 247.716C661.694 257.778 676.285 267.004 674.059 277.104C672.036 286.283 655.569 287.142 653.389 296.283C650.773 307.246 670.627 315.479 669.92 326.728C669.201 338.174 653.065 351.139 655.693 362.302C658.237 373.107 671.346 372.43 674.382 383.107C677.808 395.158 663.074 407.546 665.947 419.742C668.04 428.63 684.58 428.365 687.111 437.138C690.341 448.339 678.224 460.209 680.896 471.555C682.98 480.402 697.736 482.33 699.84 491.17C702.271 501.38 687.893 517.22 690.296 527.436C691.212 531.331 710.738 555.877 715.507 564.323C720.274 572.768 701.698 599.377 706.578 606.008C711.457 612.639 733.921 631.812 743.279 632.145" stroke="#2B2A29" stroke-width="7" stroke-miterlimit="22.9256"/>
<path d="M845.521 121.631C867.946 146.885 890.371 172.14 909.23 200.553C928.088 228.966 943.381 260.537 953.492 283.23C963.606 305.921 968.539 319.733 969.649 336.258C970.759 352.785 968.045 372.024 960.768 392.988C953.492 413.953 941.654 436.646 928.088 457.858C914.522 479.069 899.23 498.802 885.401 513.089C871.573 527.376 859.208 536.22 846.844 545.062" stroke="#2B2A29" stroke-width="7" stroke-miterlimit="22.9256"/>
<path d="M769.709 72.4351C777.94 76.1037 786.172 79.7734 794.767 84.7894C803.363 89.8044 812.322 96.1688 821.281 102.531" stroke="#2B2A29" stroke-width="7" stroke-miterlimit="22.9256"/>
<path d="M785.083 608.811C792.877 602.891 800.67 596.97 807.744 590.532C814.816 584.093 821.171 577.137 827.525 570.182" stroke="#2B2A29" stroke-width="7" stroke-miterlimit="22.9256"/>
<path d="M558.242 345.071C558.224 336.006 558.206 326.942 559.758 321.133C561.31 315.322 564.433 312.769 568.548 310.781C572.664 308.794 577.772 307.376 584.016 304.396C590.26 301.415 597.64 296.875 603.884 289.638C610.129 282.399 615.237 272.466 619.069 262.531C622.9 252.597 625.455 242.664 626.589 232.163C627.726 221.66 627.443 210.591 625.881 200.8C624.321 191.008 621.482 182.492 617.082 173.978C612.683 165.463 606.723 156.948 599.201 150.704C591.68 144.461 582.599 140.486 574.083 138.075C565.569 135.662 557.621 134.811 548.964 135.237C540.308 135.663 530.942 137.364 522.569 141.623C514.197 145.88 506.816 152.692 503.41 158.227C500.004 163.76 500.572 168.018 503.552 169.721C506.533 171.424 511.925 170.573 517.46 168.586C522.995 166.598 528.671 163.476 534.773 161.916C540.875 160.354 547.404 160.354 553.931 162.767C560.46 165.179 566.987 170.004 572.097 175.255C577.205 180.507 580.895 186.182 583.591 193.847C586.288 201.509 587.99 211.159 588.133 220.383C588.275 229.608 586.856 238.407 583.307 245.928C579.76 253.449 574.083 259.693 566.704 264.661C559.325 269.627 550.242 273.316 540.875 275.02C531.509 276.723 521.859 276.439 513.628 274.169C505.398 271.898 498.585 267.641 493.05 262.248C487.516 256.854 483.259 250.327 479.569 242.238C475.88 234.148 472.758 224.499 471.48 215.984C470.204 207.469 470.771 200.09 471.764 191.291C472.758 182.492 474.176 172.275 478.86 160.781C483.543 149.285 491.49 136.513 500.572 124.876C509.655 113.24 519.872 102.738 530.091 94.224C540.309 85.7094 550.526 79.1803 563.298 72.0851C576.07 64.99 591.398 57.3255 605.588 53.0682C619.779 48.8109 632.834 47.9607 646.032 47.3925C659.231 46.8253 672.571 46.5412 689.218 48.0575C705.867 49.5738 725.823 52.8917 745.779 56.2084" stroke="#2B2A29" stroke-width="7" stroke-miterlimit="22.9256"/>
<path d="M558.242 345.071C558.327 352.562 558.412 360.054 560.014 365.078C561.618 370.1 564.741 372.655 568.856 374.642C572.972 376.629 578.08 378.048 584.324 381.028C590.569 384.009 597.948 388.549 604.192 395.786C610.437 403.025 615.544 412.958 619.377 422.892C623.208 432.826 625.763 442.76 626.898 453.26C628.033 463.762 627.75 474.832 626.189 484.624C624.628 494.416 621.789 502.93 617.39 511.445C612.991 519.96 607.031 528.476 599.509 534.718C591.988 540.963 582.906 544.936 574.392 547.349C565.876 549.762 557.929 550.612 549.272 550.187C540.615 549.761 531.249 548.058 522.877 543.801C514.504 539.544 507.124 532.732 503.718 527.197C500.313 521.662 500.88 517.405 503.86 515.701C506.841 514 512.232 514.851 517.768 516.838C523.303 518.824 528.979 521.948 535.081 523.508C541.182 525.069 547.712 525.069 554.238 522.657C560.768 520.244 567.295 515.419 572.404 510.168C577.513 504.917 581.203 499.241 583.899 491.577C586.596 483.914 588.298 474.265 588.44 465.04C588.582 455.816 587.164 447.017 583.615 439.496C580.068 431.974 574.392 425.73 567.011 420.763C559.632 415.797 550.549 412.107 541.182 410.404C531.817 408.701 522.167 408.984 513.936 411.254C505.705 413.526 498.893 417.783 493.358 423.176C487.824 428.568 483.567 435.096 479.877 443.185C476.187 451.276 473.065 460.925 471.788 469.439C470.512 477.954 471.079 485.333 472.072 494.132C473.065 502.93 474.484 513.148 479.167 524.642C483.851 536.138 491.797 548.911 500.88 560.547C509.963 572.184 520.18 582.685 530.398 591.199C540.616 599.715 550.833 606.242 563.605 613.338C576.377 620.433 591.705 628.097 605.896 632.355C620.087 636.612 633.142 637.463 646.34 638.03C659.538 638.599 672.878 638.883 689.059 637.854C705.238 636.826 724.259 634.485 743.279 632.145" stroke="#2B2A29" stroke-width="7" stroke-miterlimit="22.9256"/>
<path d="M96.4641 338.83C96.4641 375.443 96.4641 412.058 97.3154 433.061C98.1677 454.064 99.8691 459.455 103.417 462.863C106.966 466.269 112.358 467.687 119.453 467.545C126.549 467.403 135.348 465.701 148.971 463.997C162.595 462.295 181.044 460.592 199.634 460.024C218.225 459.456 236.957 460.024 254.554 460.592C272.152 461.159 288.614 461.727 303.939 463.714C319.267 465.7 333.458 469.107 347.081 473.222C360.705 477.337 373.76 482.163 383.835 485.427C393.911 488.69 401.007 490.393 405.974 490.109C410.942 489.826 413.781 487.554 416.334 483.156C418.888 478.757 421.16 472.229 423.145 463.997C425.133 455.766 426.835 445.833 429.815 435.899C432.796 425.965 437.054 416.031 442.304 406.807C447.555 397.582 453.799 389.068 458.908 384.242C464.017 379.418 467.99 378.282 470.97 375.587C473.95 372.89 475.938 368.632 476.788 362.531C477.64 356.428 477.356 348.481 477.072 340.534" stroke="#2B2A29" stroke-width="7" stroke-miterlimit="22.9256"/>
<path d="M96.4644 340.428C96.1803 304.901 95.8962 269.375 96.6064 248.914C97.3156 228.455 99.0181 223.063 102.566 219.656C106.114 216.25 111.506 214.831 118.602 214.974C125.698 215.116 134.497 216.818 148.119 218.522C161.744 220.225 180.192 221.928 198.782 222.495C217.374 223.063 236.106 222.495 253.703 221.928C271.301 221.359 287.762 220.791 303.088 218.805C318.415 216.818 332.606 213.412 346.23 209.297C359.854 205.181 372.909 200.356 382.984 197.093C393.06 193.829 400.156 192.125 405.123 192.41C410.089 192.694 412.928 194.964 415.482 199.363C418.037 203.762 420.308 210.291 422.294 218.522C424.281 226.752 425.983 236.685 428.963 246.62C431.944 256.554 436.202 266.487 441.453 275.712C446.704 284.936 452.948 293.451 458.056 298.276C463.166 303.102 467.139 304.236 470.119 306.932C473.099 309.629 475.086 313.886 476.087 319.978C477.088 326.069 477.106 333.996 477.122 341.922" stroke="#2B2A29" stroke-width="7" stroke-miterlimit="22.9256"/>
</svg>
